X:237
T: SOLL SICH DER MOND NICHT HELLER SCHEINEN
N: E0819
O: Europa, Mitteleuropa, Deutschland, Rheinland, Siebengebirge
R: Kilt - Lied
M: 3/4
L: 1/8
K: F#
F,C | =D2C2EF | =DC
DE | F2=DFED | C2z
CFG | =A2F2=GF | E2C
C=DE | F2=D2CD | 2z

